X: 20040
T: Jimmy Duffy's
R: barndance
M: 4/4
K: Gmajor
A|BGDG B3A|BAGB d3d|efgd B3G|AGFG A2AA|
BGDG B3A|BAGB d3d|efgd B3G|AcBA G4:|
gf|g2gd B3A|BAGB d3d|efgd B3G|AGFG A4|
[1 g2gd B3A|BAGB d3d|efgd B3G|AcBA G2:|
[2 BGDG B3A|BAGB d3d|efgd B3G|AcBA G4:|

